X: 15817
T: Gooseberry Bush, The
R: reel
M: 4/4
K: Dmixolydian
DEFD EFGE|~A3B cAGB|ABBA dcAF|~G3F GBAF|
DEFD EFGE|ABBA d2de|f2e^c dfed|cAGE EDD2|
DEFD EFGE|~A3B BAAG|ABBA dcAF|~G3F ~G3z1|
DEFD EFGE|ABBA d2de|f2e^c dfed|cAGE D2z2||
|:Add2 fded|cBcd cAG2|~A3F G~E3|FGAB cAAG|
Add2 fded|cBcd cAG2|ABBA dcAG|ABBA d4:|
Add2 fd^cd|efge aged|^cdef g2ef|~g3e d^cAd|
BdAd G2AG|FGAB c2 AG|ABBA dcAG|ABBA d4|
Add2 fd^cd|efge aged|^cdef g2ef|~g3e d^cAd|
d2Bd AdG2|FGAB cAGB|ABBA dcAG|ABBA d4||

